!!!COM: Peter Cornelius
!!!CNT: Deutsch
!!!TXO: Deutsch
!!!OTL: Wiegenlied
!!!LYR: Cornelius
!!!OPR: Six Songs
!!!OPS: Op.1
!!!ONM: No. 3
!!!ENC: Ben Fuhrman
!!!YOR: CD Sheet Music, Mid-Romantic German Lieder: The Ultimate Collection.
!!!YOR: CD Sheet Music, LLC 2001
!!!ODT: 1853 
!!NB: Only vocal melody encoded.
!!NB: First instance of melodic material only encoded.
!!created: 2/1/10 1:35PM
!!proofed and posted: 2/1/10 1:36PM
**kern	**silbe
*clef G2	*
*k[f#c#]	*
*M6/8	*
*MM[Etwas bewegt]	*
=1	  =1
{4a	  {Vo2g-
8a	  -lein
(8a	  fliegt
8b)	  |
8g	  dem
=2	  =2
4a	  Nest-
8f#	  -chen
4d}	  zu,}
8r	  .
=3	  =3
{4a	  {hat
8a	  sich
(8a	  mu2d'
8dd)	  |
8b	  ge-
=4	  =4
4.a	  -flo-
4f#}	  -gen;}
8r	  .
=5	  =5
{4b	  {Schiff-
8b	  -lein
(8b	  sucht
8cc#)	  |
8b	  im
=6	  =6
4a	  Ha
8e	  -fen
[4.g	  Ruh'
=7	  =7
8g]}	  |}
{8f#	 { vor
8e	  den
(8d	  wan-
8f#)	  -ken-
8g	  -den
=8	  =8
4.a	  Wo-
4f#}	  -gen.}
8r	  .
=9	  =9
{4b	  {Schiff-
8b	  -lein
(8ee	  sucht
8dd)	  |
8b	  im
=10	  =10
(8a	  Ha-
8cc#)	  |
8b	  -fen
[4.a	  Ruh'
=11	  =11
8a]}	  |}
{8g	  {vor
8f#	  den
(8f#	  wan-
8e)	  -ken-
8d	  -den
=12	  =12
4.e	  Wo-
4d}	  -gen.}
8r	  .
==	==
*-	*-
